packages/vapor/resources/icons/svg/source-dynamics.svg

<svg xmlns="http://www.w3.org/2000/svg" viewBox="0 0 32 32" enable-background="new 0 0 32 32">
  <path fill="#1c6db5"
        d="m9.5.1c.2 0 .5 0 .5 0v14.8c0 0-5.7.6-8.5 3.1 0 0 4.4-2.5 8.9-2.6v-4.6c2.2-2.3 3.7-6 4.4-7.3.3-.1.6 0 .6 0v13c-6.8-1.1-13.2 1.3-13 1.2 2.8-.7 8.7-1.7 13.4-.6 0-.9 0-7 0-7s3.1-2.4 3.8-3.5c.2-.1.3 0 .3 0s.1 12.3 0 12.3c-9.4-3.5-19.9 0-19.9 0v-1.5c0 .1 7.6-7.9 9.5-17.3"
        transform="translate(5 5)"/>
  <path fill="#bcc3ca" d="m30 2v28h-28v-28h28m0-2h-28c-1.1 0-2 .9-2 2v28c0 1.1.9 2 2 2h28c1.1 0 2-.9 2-2v-28c0-1.1-.9-2-2-2z"/>
</svg>

<svg xmlns="http://www.w3.org/2000/svg" viewBox="0 0 32 32">
<path d="M30,2V30H2V2H30m0-2H2A2,2,0,0,0,0,2V30a2,2,0,0,0,2,2H30a2,2,0,0,0,2-2V2A2,2,0,0,0,30,0Z" style="fill:#bcc3ca"/>
<polygon points="9 4.77 22.23 11.69 18.08 15.08 9 10.62 9 4.77" style="fill:#001f51"/>
<polygon points="9 11.85 13.46 14.62 9 27.23 9 11.85" style="fill:#001f51"/>
<polygon points="23 19.54 9 27.23 23 12.15 23 19.54" style="fill:#001f51"/>
</svg>
